svg/24/lock-open.svg

<svg width="24" height="24" viewBox="0 0 24 24" fill="currentColor" xmlns="http://www.w3.org/2000/svg"><path d="M12.75 15.7993C13.1984 15.54 13.5 15.0552 13.5 14.5C13.5 13.6716 12.8284 13 12 13C11.1716 13 10.5 13.6716 10.5 14.5C10.5 15.0552 10.8016 15.54 11.25 15.7993V17.25C11.25 17.6642 11.5858 18 12 18C12.4142 18 12.75 17.6642 12.75 17.25V15.7993Z"/><path fill-rule="evenodd" clip-rule="evenodd" d="M10.7563 2.99739C11.4172 2.72361 12.1501 2.67557 12.8412 2.86074C13.5322 3.04591 14.1429 3.45393 14.5784 4.02153C15.0139 4.58912 15.25 5.28456 15.25 6V9H6C4.89543 9 4 9.89543 4 11V20C4 21.1046 4.89543 22 6 22H18C19.1046 22 20 21.1046 20 20V11C20 9.89543 19.1046 9 18 9H16.75V6C16.75 4.95436 16.405 3.93794 15.7684 3.10838C15.1319 2.27882 14.2394 1.68248 13.2294 1.41185C12.2194 1.14122 11.1483 1.21143 10.1822 1.61157C9.2162 2.01172 8.40919 2.71945 7.88637 3.625C7.67926 3.98372 7.80217 4.44241 8.16089 4.64952C8.51961 4.85663 8.9783 4.73372 9.18541 4.375C9.54313 3.75542 10.0953 3.27118 10.7563 2.99739ZM6 10.5H18C18.2761 10.5 18.5 10.7239 18.5 11V20C18.5 20.2761 18.2761 20.5 18 20.5H6C5.72386 20.5 5.5 20.2761 5.5 20V11C5.5 10.7239 5.72386 10.5 6 10.5Z"/></svg>

<svg xmlns="http://www.w3.org/2000/svg" width="24" height="24" fill="currentColor" viewBox="0 0 24 24">
  <path d="M12.75 15.8a1.5 1.5 0 1 0-1.5 0v1.45a.75.75 0 0 0 1.5 0V15.8Z"/>
  <path fill-rule="evenodd" d="M10.756 2.997A3.25 3.25 0 0 1 15.25 6v3H6a2 2 0 0 0-2 2v9a2 2 0 0 0 2 2h12a2 2 0 0 0 2-2v-9a2 2 0 0 0-2-2h-1.25V6a4.75 4.75 0 0 0-8.864-2.375.75.75 0 1 0 1.3.75 3.25 3.25 0 0 1 1.57-1.378ZM6 10.5h12a.5.5 0 0 1 .5.5v9a.5.5 0 0 1-.5.5H6a.5.5 0 0 1-.5-.5v-9a.5.5 0 0 1 .5-.5Z" clip-rule="evenodd"/>
</svg>
